X:1
T:James Gibb editions
T:In pace - Sheppard
T:#
%%score [ 1 2 3 4 ]
L:1/8
Q:1/4=90
M:4/4
K:Ab
V:1 treble nm="Soprano" snm="S"
V:2 treble nm="Alto" snm="A"
V:3 treble-8 nm="Tenor" snm="T"
V:4 bass nm="Bass" snm="B"
V:1
"^In pace""^John Sheppard\n(c.1515-58)" z8 | z8 | z8 | E4 (A3 G | AB c2 BA A2- | AG/F/ G2 A4) | %6
w: |||In pa\- *||* * * * ce,|
 z2 c2 d4 | c8 ||[M:4/4][Q:1/4=120][Q:1/4=120][Q:1/4=120][Q:1/4=120] z8 | z8 | z8 | z8 | z8 | z8 | %14
w: in pa-|ce,|||||||
 z8 | z8 |[M:4/4][Q:1/4=90][Q:1/4=90][Q:1/4=90][Q:1/4=90] z8 | z8 | A6 c2- | cc (B2 A2 G2- | %20
w: ||||Si de-|* de- ro * *|
 GF A3 G/F/ G2 | A4) z4 | z8 | z6 A2 | G2 B3 B (FG) | (AB c2 Bc d2 | c4 B4 | c8) | z8 | z8 | %30
w: |||So-|mnum o- cu- lis *|me\- * * * * *||is:|||
 A3 A B2 c2 | (d3 c BA A2- | AG/F/ G2 F3 G | AG/F/ AB c2 d2 | c2 B2 A4) | z2 BB e2 d2 | %36
w: et pal- pe- bris|me\- * * * *|||* * is|dor- mi- ta- ti-|
 (c2 B3 A d2 | c2 B2 A4) | G4 z2 cc | B2 A2 (d3 c | BA A3 G/F/ G2) | A8 || %42
w: o\- * * *||nem, dor- mi-|ta- ti- o\- *||nem.|
[M:4/4][Q:1/4=120][Q:1/4=120][Q:1/4=120][Q:1/4=120] z8 | z8 | z8 | z8 | z8 | z8 | z8 | z8 | %50
w: ||||||||
[M:4/4][Q:1/4=90][Q:1/4=90][Q:1/4=90][Q:1/4=90] z8 | z6 e2- | ee c2 d2 cB | e3 (dcB A2 | %54
w: |Glo\-|* ri- a Pa- tri et|Fi- li\- * * *|
 B2 c3 d c2 | B8 | c8 | B2 B2 c3 B | A2 (c2 B2 A2- | A2 GF G4) | A4 z4 | B2 B2 e3 d | %62
w: ||o:|et Spi- ri- tu-|i San\- * *||cto,|et Spi- ri- tu-|
 c2 e2 dc cB/A/ | B4) c4 | z8 | z2 c4 c2 | d3 d c4 | (B2 A2 d3 c | BA A3 G/F/AG | A8-) | %70
w: i San\- * * * * *|* cto,||et Spi-|ri- tu- i|San\- * * *||cto.|
"^al fine" A8 |] %71
w: |
V:2
 z8 | z8 | z8 | z2 C4 (E2- | ED E2 FEDC | E4 C4) | z2 E2 A4 | A8 ||[M:4/4] z8 | z8 | z8 | z8 | z8 | %13
w: |||In pa\-||* ce,|in pa-|ce,||||||
 z8 | z8 | z8 |[M:4/4] z8 | z8 | z4 E4 | G3 G (F2 E2- | ED/C/ D2 E4 | C4) z4 | z8 | z8 | %24
w: |||||Si|de- de- ro *|||||
 E2 D2 F3 F | (CD) (EF G2 FG | A2 E3 D E2 | C2) E3 E F2 | G2 (A3 GFE | D2 C2 B,4 | C2 B,A, E4 | %31
w: so- mnum o- cu-|lis * me\- * * * *||is: et pal- pe-|bris me\- * * *|||
 F3 G FEDC | E2 B,6 | A,B,CD E2 F2 | E3 D C2 F)F | A2 G2 (A2 F2) | E2 B,B, E2 D2 | (E3 D C2 B,A,) | %38
w: |||* * is dor mi-|ta- ti- o\- *|nem, dor- mi- ta- ti-|o\- * * * *|
 B,4 z2 EE | F2 E2 (A3 G | FEDC E4) | E8 ||[M:4/4] z8 | z8 | z8 | z8 | z8 | z8 | z8 | z8 | %50
w: nem, dor- mi-|ta- ti- o\- *||nem.|||||||||
[M:4/4] z8 | z8 | A3 A F2 G2 | EE A3 (GFE | D2 E2 F2 A2- | AG/F/ G3 A G2 | F2 E2) A4 | z4 E2 E2 | %58
w: ||Glo- ri- a Pa-|tri et Fi- li\- * *|||* * o:|et Spi-|
 F3 E D2 (F2 | E8) | C4 z4 | z4 E2 E2 | A3 G F2 (A2- | AG/F/ G2) A4 | z8 | z2 A4 A2 | %66
w: ri- tu- i San\-||cto,|et Spi-|ri- tu- i San\-|* * * * cto,||et Spi-|
 A3 A A2 (E2- | E2 C2 F3 E | DCB,A, B,4 | A,B,CD E2 D2 |"^al fine" C8) |] %71
w: ri- tu- i San\-||||cto.|
V:3
 z4 c4- | c2 (e3 def | g2 f2 e4 | c2 e3 dcB | f2 e2 dcBA | B4 A4) | z2 e2 f4 | e8 ||[M:4/4] z8 | %9
w: In|* pa\- * * *||||* ce,|in pa-|ce,||
 z8 | z8 | z8 | z8 | z8 | z8 | z8 |[M:4/4][K:treble-8] z4 e4 | g3 g (f2 e2- | ef d2 c4 | e3 d c4- | %20
w: |||||||Si|de- de- ro *|||
 c2 BA B4 | A4 e2) d2 | f3 f cd (ef | g2 f3 e f2 | Bc d4 B2 | A4 e2 de | fg a3 g/f/ g2 | a8) | z8 | %29
w: |* so- mnum|o- cu- lis * me\- *|||||is:||
 z6 e2- | ee f2 g2 (a2- | agfe dcBA | B2 e3 d/c/ d2 | c3 B) A4 | z2 BB e2 d2 | (c2 B2 c2 d2 | %36
w: et|* pal- pe- bris me\-|||* * is|dor- mi- ta- ti-|o\- * * *|
 e3 d) c2 ff | a2 g2 (fedc) | e4 z2 cc | d2 c2 (f3 e | dcBA B4) | A8 ||[M:4/4] z8 | z8 | z8 | z8 | %46
w: * * nem, dor- mi-|ta- ti- o\- * * *|nem, dor- mi-|ta- ti- o\- *||nem.|||||
 z8 | z8 | z8 | z8 |[M:4/4][K:treble-8] e3 e c2 d2 | BB e3 (dcB | A2 e2 d2 e2) | c4 z4 | %54
w: ||||Glo- ri- a Pa-|tri et Fi- li\- * *||o:|
 z2 A3 A A2 | e3 e B2 e2- | e (dcB A2 e2 | d4 c4) | z8 | B2 B2 c3 B | A2 (c2 B2 A2- | AGAB c2 A2 | %62
w: Glo- ri- a|Pa- tri et Fi\-|* li\- * * * *|* o:||et Spi- ri- tu-|i San\- * *||
 e4) A2 A2 | e3 d c2 (e2 | dc cB/A/ B4) | c4 e2 e2 | f3 f e4 | z2 (e2 a3 g | fedc e3 d | %69
w: cto, et Spi-|ri- tu- i San\-||cto, et Spi-|ri- tu- i|San\- * *||
 cded c2 f2 |"^al fine" e8) |] %71
w: |cto.|
V:4
 F,8 | (A,3 G, A,B, C2 | B,A, A,3 G,/F,/ G,2 | A,6 E,2 | F,2 C,2 D,2 F,2 | E,4 A,,4) | z2 A,2 D,4 | %7
w: In|pa\- * * * *||||* ce,|in pa-|
 A,8 || G,2 (B,2 A,2 G,2) | F,4 E,4 | A,2 (G,2 E,2) (F,2 | C,2 D,2 C,4 | B,,4) (F,2 E,2 | %13
w: ce,|In id\- * *|ip- sum|dor- mi\- * am||* et *|
 D,2) (E,2 F,2 A,2 | G,2 F,2 G,2) (E,2 | F,2 E,2) E,4 | A,6 C2- | CC B,2 A,2 G,2 | F,4 A,4 | %19
w: * re\- * *|* * qui- e\-|* * scam.|Si de\-|* de- ro * *||
 E,4 F,2 C,2 | F,4 E,4 | z2 A,2 G,2 B,2- | B,B, (F,G,) (A,B, C2 | B,3 A, G,2 F,2 | %24
w: ||so- mnum o\-|* cu- lis * me\- * *||
 E,2 B,,C, D,B,,D,E, | F,2 A,2 E,2 B,2) | A,4 E,4 | A,,4 A,3 A, | B,2 C2 (D3 C | %29
w: |||is: et pal-|pe- bris me\- *|
 B,A, A,3 G,/F,/ G,2 | A,2 F,2 E,2 A,2 | D,3 E, F,4 | E,4 B,,4 | F,4) z2 D,D, | A,2 G,2 (A,2 F,2) | %35
w: ||||is dor- mi-|ta- ti- o\- *|
 E,4 z2 D,D, | A,2 G,2 (A,2 F,2 | E,4 F,4) | E,4 z2 A,A, | D,2 F,2 (D,3 E, | F,4 E,4) | A,,8 || %42
w: nem, dor- mi-|ta- ti- o\- *||nem, dor- mi-|ta- ti- o\- *||nem.|
 G,2 (B,2 A,2 G,2) | F,4 E,4 | A,2 (G,2 E,2) (F,2 | C,2 D,2 C,4 | B,,4) (F,2 E,2 | %47
w: In id\- * *|ip- sum|dor- mi\- * am||* et *|
 D,2) (E,2 F,2 A,2 | G,2 F,2 G,2) (E,2 | F,2 E,2) E,4 | z2 A,3 A, F,2 | G,2 E,E, A,3 (G, | %52
w: * re\- * *|* * qui- e\-|* * scam.|Glo- ri- a|Pa- tri et Fi- li\-|
 C3 B,/A,/ B,2) E,2 | z8 | z8 | z2 E,3 E, E,2 | A,3 A, F,2 A,2- | A, (G,/F,/ G,2) A,4 | z8 | %59
w: * * * * o:|||Glo- ri- a|Pa- tri et Fi\-|* li\- * * o:||
 E,6 E,2 | F,3 E, D,2 (F,2 | E,4 A,,2 C,2 | A,,4) z4 | E,3 E, A,3 G, | F,2 (A,3 G,/F,/ G,2) | %65
w: et Spi-|ri- tu- i San\-||cto,|et Spi- ri- tu-|i San\- * * *|
 A,4 A,2 A,2 | D,3 D, A, (B,CB,/A,/ | G,F,/E,/ A,2 D,3 E, | F,4 E,4 | A,,3 B,, C,2 D,2 | %70
w: cto, et Spi-|ri- tu- i San\- * * *||||
"^al fine" A,,8) |] %71
w: cto.|

